symbols/web/space_bar/materialsymbolsrounded/space_bar_wght500grad200_40px.svg

<svg xmlns="http://www.w3.org/2000/svg" height="40" width="40"><path d="M7.583 25.667q-.791 0-1.312-.521t-.521-1.313v-7.208q0-.75.542-1.292.541-.541 1.291-.541.792 0 1.334.541.541.542.541 1.292v5.333h21.084v-5.333q0-.75.541-1.292.542-.541 1.334-.541.791 0 1.333.541.542.542.542 1.292v7.208q0 .792-.542 1.313-.542.521-1.333.521Z"/></svg>

<svg xmlns="http://www.w3.org/2000/svg" height="40" width="40"><path d="M7.583 25.667Q6.792 25.667 6.271 25.146Q5.75 24.625 5.75 23.833V16.625Q5.75 15.875 6.292 15.333Q6.833 14.792 7.583 14.792Q8.375 14.792 8.917 15.333Q9.458 15.875 9.458 16.625V21.958H30.542V16.625Q30.542 15.875 31.083 15.333Q31.625 14.792 32.417 14.792Q33.208 14.792 33.75 15.333Q34.292 15.875 34.292 16.625V23.833Q34.292 24.625 33.75 25.146Q33.208 25.667 32.417 25.667Z"/></svg>
